resources/svg/major-delete.svg

<svg xmlns="http://www.w3.org/2000/svg" viewBox="0 0 20 20" fill="currentColor"><path fill-rule="evenodd" d="M14 4h3a1 1 0 0 1 1 1v1h-16v-1a1 1 0 0 1 1-1h3v-2.5a1.5 1.5 0 0 1 1.5-1.5h5a1.5 1.5 0 0 1 1.5 1.5v2.5zm-6-2v2h4v-2h-4zm-5 6h14v10.5a1.5 1.5 0 0 1-1.5 1.5h-11a1.5 1.5 0 0 1-1.5-1.5v-10.5zm4 3h-2v6h2v-6zm4 0h-2v6h2v-6zm2 0h2v6h-2v-6z"/></svg>

<svg xmlns="http://www.w3.org/2000/svg" viewBox="0 0 20 20" fill="currentColor"><path fill-rule="evenodd" d="M14 4h3a1 1 0 0 1 1 1v1H2V5a1 1 0 0 1 1-1h3V1.5A1.5 1.5 0 0 1 7.5 0h5A1.5 1.5 0 0 1 14 1.5V4zM8 2v2h4V2H8zM3 8h14v10.5a1.5 1.5 0 0 1-1.5 1.5h-11A1.5 1.5 0 0 1 3 18.5V8zm4 3H5v6h2v-6zm4 0H9v6h2v-6zm2 0h2v6h-2v-6z"/></svg>
